X:87
T:Marshal Saxe’s new March. JJo.087
S:J.Jones MS,1801,N.Shrops.
A:N Shropshire
Z:Neil Brookes 2006
M:4/4
L:1/8
Q:1/4=140
K:C
c2c>cc4|cecG cecG|d2d>dd4|dfdG dfdG|e2e>e egfe|d2d>dd4|!
c2ed cBAG|FGAF D4|B2d>B A2c>A|B2d>B TA4|BdBG AcAF|G2G>GG4::!
d2d>dd4|dcBc dcBc|dcBATG4|e2e>e e4|edcB cBAB|GABG E4|!
edcB cBAG|edcB cBAG|edcB c2B2|A2A>A A4|d2d>d defd|e2e>e efge|!
d2d>d defd|e2e>e e4|G2e>G F2d>F|E2c>E D4|GeeG FddF|EccE TD4|!
(3efg (3edc (3def (3dcB|c2c>c Tc4″repeat sign missing in MS”:|

